images/placeholder-3by2.svg

<svg xmlns="http://www.w3.org/2000/svg" width="1200" height="800" viewBox="0 0 1200 800"><title>placeholder</title><path fill="#e2e2e2" d="M2 2h1196v796h-1196z"/><path d="M1196 4v792h-1192v-792h1192m4-4h-1200v800h1200v-800z" fill="#666"/><path stroke="#666" stroke-miterlimit="10" stroke-width="4" fill="none" d="M0 0l1200 800M1200 0l-1200 800"/></svg>

<svg xmlns="http://www.w3.org/2000/svg" width="1200" height="800" viewBox="0 0 1200 800"><title>placeholder</title><rect x="2" y="2" width="1196" height="796" fill="#e2e2e2"/><path d="M1196,4V796H4V4H1196m4-4H0V800H1200V0h0Z" fill="#666"/><line x2="1200" y2="800" fill="none" stroke="#666" stroke-miterlimit="10" stroke-width="4"/><line x1="1200" y2="800" fill="none" stroke="#666" stroke-miterlimit="10" stroke-width="4"/></svg>
